packages/sources/icons/src/vitamix/safari-line.svg

<svg width="16" height="16" viewBox="0 0 16 16" xmlns="http://www.w3.org/2000/svg"><path d="M11.8747 4.33534L8.94271 8.94268L4.33537 11.8747C5.15799 12.6547 6.20847 13.1514 7.33337 13.292V12H8.66671V13.292C9.61607 13.1738 10.5158 12.8011 11.2707 12.2133L10.3574 11.3L11.3 10.3573L12.2134 11.2707C12.8011 10.5158 13.1738 9.61604 13.292 8.66668H12V7.33334H13.292C13.1514 6.20843 12.6548 5.15796 11.8747 4.33534ZM11.6647 4.12534C10.8421 3.34528 9.79162 2.84866 8.66671 2.70801V4.00001H7.33337V2.70801C6.38401 2.82626 5.48427 3.19897 4.72937 3.78668L5.64271 4.70001L4.70004 5.64268L3.78671 4.72934C3.199 5.48424 2.82629 6.38398 2.70804 7.33334H4.00004V8.66668H2.70804C2.84869 9.79158 3.34531 10.8421 4.12537 11.6647L7.05737 7.05734L11.6647 4.12534ZM8.00004 14.6667C4.31804 14.6667 1.33337 11.682 1.33337 8.00001C1.33337 4.31801 4.31804 1.33334 8.00004 1.33334C11.682 1.33334 14.6667 4.31801 14.6667 8.00001C14.6667 11.682 11.682 14.6667 8.00004 14.6667Z"/></svg>

<svg width="16" height="16" xmlns="http://www.w3.org/2000/svg"><path d="M11.875 4.335 8.943 8.943l-4.608 2.932a5.315 5.315 0 0 0 2.998 1.417V12h1.334v1.292c.95-.118 1.849-.49 2.604-1.079l-.914-.913.943-.943.913.914a5.306 5.306 0 0 0 1.079-2.604H12V7.333h1.292a5.315 5.315 0 0 0-1.417-2.998Zm-.21-.21a5.315 5.315 0 0 0-2.998-1.417V4H7.333V2.708c-.949.118-1.849.491-2.604 1.079l.914.913-.943.943-.913-.914a5.307 5.307 0 0 0-1.079 2.604H4v1.334H2.708a5.315 5.315 0 0 0 1.417 2.998l2.932-4.608 4.608-2.932ZM8 14.667A6.667 6.667 0 1 1 8 1.334a6.667 6.667 0 0 1 0 13.333Z"/></svg>
